X:1
T:Title
%%score { ( 1 3 ) | ( 2 4 ) }
L:1/8
Q:1/4=100
M:6/8
K:Ab
V:1 treble nm="Grand Piano"
V:3 treble 
V:2 bass 
V:4 bass 
V:1
 [CE]2 [_C=D] [=CE]2 [_DF] | [CE]3 [CEA]3 | A2 G G2 A | B6 | B2 =A B2 E | [EA]2 B c3 | %6
w: Ira~B.~Wilson * * *||||||
 cc[Ac] =d2 B | [Ge]6 | e3 cBA | [CE]3 [CA]3 | BBc dcB | [Ec]3 [_Ge]3 | [Fe][Fd][Fd] [DF]2 [Fd] | %13
w: |||||||
 [Fd]3 [Ec]3 | c2 B E2 B | [CA]6 |] %16
w: |||
V:2
 [A,,A,]2 [A,,A,] [A,,A,]2 [A,,A,] | [A,,A,]3 A,,3 | [E,CE]2 [E,B,E] [E,B,E]2 [E,A,E] | [E,G,E]6 | %4
 [E,G,E]2 [E,_G,E] [E,=G,E]2 [D,B,] | [C,A,]2 [E,G,E] [A,E]3 | %6
 [F,A,F][F,A,F][F,C][K:treble] [B,A]2 [B,A] | B,3 z3 | [A,CA]3 [A,E][K:bass][A,D][A,C] | %9
 [A,,A,]3 [A,,A,]3 | [E,G,E][E,G,E][E,A,E] [E,B,E][E,A,E][E,G,E] | A,6 | %12
 [D,A,][D,A,][D,A,] [D,A,]2 [D,A,] | [A,,A,]3 [A,,A,]3 | [E,A,E]2 [E,G,D] [E,G,D]2 [E,D] | %15
 [A,,E,]6 |] %16
V:3
 x6 | x6 | x6 | x6 | x6 | x6 | x6 | z3 D3 | x6 | x6 | x6 | x6 | x6 | x6 | x6 | x6 |] %16
V:4
 x6 | x6 | x6 | x6 | x6 | x6 | x3[K:treble] x3 | E,6 | x4[K:bass] x2 | x6 | x6 | z3 C,3 | x6 | x6 | %14
 x6 | x6 |] %16

